X: 1
T:The Clan MacColl  " "
M:C|
L:1/8
Q:80
C:John MacColl
S:March
K:HP
|: {g}e3/4d/4[|
{gcd}c{g}d3/4B/4{g}A/4{d}A3/4{g}c/4e3/4|
{ag}ac3/4d/4{gef}e{gde}d3/4c/4|  !
{Gdc}d{e}G{g}G/4{d}G3/4{g}B/4e3/4|
{gde}d3/4c/4{g}B3/4c/4{Gdc}d{g}e3/4d/4|
{gcd}c{g}d3/4B/4{g}A/4{d}A3/4{g}c/4e3/4|  !
{ag}ac3/4d/4{gef}e{gde}d3/4c/4|
{g}B/4{d}G3/4{g}B/4d3/4{g}c/4e3/4{g}f3/4e/4|
{gcd}c{d}A{GAG}A:| |:  !
{g}c3/4d/4|
{g}e{g}f3/4g/4{ag}ag/4{a}e3/4|
{gf}ga3/4f/4{gef}e{gde}d3/4c/4|  !
{Gdc}d{e}G{g}G/4{d}G3/4{g}B/4e3/4|
{gde}d3/4c/4{g}B3/4c/4{Gdc}d{g}c3/4d/4|
{gef}e{g}c/4{d}A3/4{ag}ag/4{a}e3/4|  !
{gf}ga3/4f/4{gef}e{gde}d3/4c/4|
{g}B/4{d}G3/4{g}B/4d3/4{g}c/4e3/4{g}f3/4e/4|
{gcd}c{d}A{GAG}A:| |:  !
{g}e3/4c/4|
{g}A{GdGe}A3/4c/4{g}A/4e3/4{g}A3/4{d}c/4|
{g}c/4a3/4c3/4d/4{gef}e{gde}d3/4c/4|  !
{g}B/4d3/4{g}c/4e3/4{g}B/4d3/4{g}G3/4{d}B/4|
{g}B/4g3/2{a}B3/4c/4{Gdc}d{g}e3/4c/4|
{g}A{GdGe}A3/4c/4{g}A/4e3/4{g}A3/4{d}c/4|  !
{g}c/4a3/4c3/4d/4{gef}e{gde}d3/4c/4|
{g}B/4{d}G3/4{g}B/4d3/4{g}c/4e3/4{g}f3/4e/4|
{gcd}c{d}A{GAG}A:| |:  !
{g}c3/4d/4|
{gef}e3/4c/4a3/4f/4{gef}e3/4A/4{g}c/4e3/4|
{g}e/4a3/4c3/4d/4{gef}e{gde}d3/4c/4|  !
{g}B/4d3/4{g}c/4e3/4{gde}d3/4G/4{g}B/4d3/4|
{g}d/4g3/4B3/4c/4{Gdc}d{g}c3/4d/4|1
{gef}e3/4c/4a3/4f/4{gef}e3/4A/4{g}c/4e3/4|  !
{gf}ga3/4f/4{gef}e{gde}d3/4c/4|
{g}B/4{d}G3/4{g}B/4d3/4{g}c/4e3/4{g}f3/4e/4|
{gcd}c{d}A{GAG}A:|2  !
{gef}e3/4c/4{gde}d3/4B/4{g}c/4{d}A3/4{g}c/4e3/4|
{gf}ga3/4f/4{gef}e{gde}d3/4c/4|
{g}B/4{d}G3/4{g}B/4d3/4{g}c/4e3/4{g}f3/4e/4|  !
{gcd}c{d}A{GAG}A|]
